src/images_karasa_jaga_svg/cmd/lc_symbolshapes.puzzle.svg

<svg height="24" viewBox="0 0 24 24" width="24" xmlns="http://www.w3.org/2000/svg" xmlns:xlink="http://www.w3.org/1999/xlink"><linearGradient id="a" gradientUnits="userSpaceOnUse" x1="63.9991" x2="63.9991" y1="128" y2=".0018"><stop offset="0" stop-color="#fff"/><stop offset=".46428573" stop-color="#fff"/><stop offset=".78125" stop-color="#f1f1f1"/><stop offset=".90625" stop-color="#eaeaea"/><stop offset="1" stop-color="#dfdfdf"/></linearGradient><linearGradient id="b" gradientUnits="userSpaceOnUse" x1=".029297" x2="127.9707" y1="64.013008" y2="64.013008"><stop offset="0" stop-color="#7c9fcf"/><stop offset=".5" stop-color="#7c9ece"/><stop offset="1" stop-color="#7b9dcf"/></linearGradient><g transform="matrix(.171875 0 0 .171875 1.000155 .999845)"><path d="m56.730469 6.2851562c-.09833-.0012-.196664.0001037-.294922.00391-10.812537.402678-21.508624 1.6317871-31.630859 3.6464807l-3.677616 4.9287531c-2.568333 3.442088 3.069188 14.633417 3.610876 17.887706l2.247658 10.572592c-4.008527-.773454-8.04146-1.553522-12.126231-2.279676-7.8320253-1.392307-14.83007812 4.145374-14.83007812 11.705078v21.005859c0 3.856016 1.79597212 6.897957 4.46875002 9.16211s6.8945951 3.665237 11.0644531 2.371093c2.968081-.921164 5.970816-1.768737 9.010984-2.537875 2.697346-.682406-6.243105 31.577393-3.484887 31.021853.895565 3.10837 2.357579 3.38449 3.698512 4.26602 9.975937 2.00944 20.517305 3.25675 31.183594 3.69727 2.732077.11249 5.170736-1.70083 5.849609-4.34961 2.635121-10.29043-.83664-18.607131-2.667968-25.490236.491989-.211765 1.028432-.476562 1.671875-.476562h6.445312c.444291 0 .902154.247353 1.44336.43164-4.318066 11.337418-2.633248 19.672518-.962891 25.615238.72666 2.58633 3.136211 4.33366 5.820312 4.2207 11.597144-.48823 23.040455-1.93035 33.771488-4.26758 2.14939-.88186 3.62525-2.43725 4.10937-4.98437l-2.65088-15.763057-3.00695-13.215948c-.5077-2.231403 4.45633 1.187495 6.72228 1.855955 4.1472 1.223432 8.31418-.15827 10.98438-2.410156 2.6702-2.251887 4.4707-5.300997 4.4707-9.146485v-21.005859c0-3.887252-1.78355-6.905084-4.46289-9.201172-2.67933-2.296087-7.05757-3.752885-11.28125-2.261719-2.36342.834402-6.71604 4.514013-6.34605 2.164573l3.31341-21.040534c1.8218-5.16245 4.04735-10.790345-1.82673-11.784195-10.918336-2.3836856-22.578528-3.8408982-34.386721-4.3085936-2.717069-.1072242-5.142994 1.6898778-5.832031 4.3203126-1.484751 5.675689-2.109671 13.425845 1.664062 23.375-.564039.20105-1.068058.460937-1.542969.460937h-6.445312c-.640464 0-1.171918-.263727-1.664063-.474609 1.670343-6.266547 4.666855-13.627265 3.210938-22.828125-.440622-2.7844442-2.821808-4.8473697-5.640625-4.8867188z" fill="url(#b)"/><path d="m56.649918 12.076028a104.06962 52.126258 0 0 0 -30.713722 3.541441 52.126258 104.06962 0 0 1 5.465289 34.450424c-5.861625-1.108195-11.683753-2.275701-17.555105-3.319457-4.3770287-.778111-8.024249 2.676922-8.024249 6.001743v21.006105c0 3.324823 3.7783801 7.319482 8.024249 6.001745 5.781637-1.794372 11.696991-3.320295 17.764754-4.542416a52.126258 104.06962 0 0 1 -5.679047 37.145037 104.06962 52.126258 0 0 0 30.275923 3.58871c2.262778-8.83639-1.266244-16.387038-3.115974-24.309109-.757672-3.244972 3.448064-6.014077 7.732384-6.014077h6.445708c4.284323 0 9.091153 2.971438 7.732385 6.014077-5.147881 11.527439-3.457017 17.927629-1.6772 24.259779a104.06962 52.126258 0 0 0 32.783497-4.13955 52.126258 104.06962 0 0 1 -5.39951-35.480173c4.39051.976977 8.86716 2.127454 13.44431 3.477722 4.26399 1.257883 8.02426-2.676922 8.02426-6.001745v-21.006105c0-3.324821-3.83219-7.481751-8.02426-6.001743-4.60374 1.625346-9.05561 2.938085-13.38676 4.003902a52.126258 104.06962 0 0 1 5.36458-34.466867 104.06962 52.126258 0 0 0 -33.379571-4.180668c-1.491498 5.701484-2.328542 11.894886 2.250654 22.148904 1.358768 3.042639-3.448062 6.014078-7.732385 6.014078h-6.445708c-4.28432 0-8.490056-2.769107-7.732384-6.014078 1.699327-7.277926 4.813502-14.242623 3.557882-22.177679z" fill="url(#a)"/></g></svg>

<?xml version="1.0" encoding="UTF-8" standalone="no"?>
<svg
   xmlns:dc="http://purl.org/dc/elements/1.1/"
   xmlns:cc="http://creativecommons.org/ns#"
   xmlns:rdf="http://www.w3.org/1999/02/22-rdf-syntax-ns#"
   xmlns:svg="http://www.w3.org/2000/svg"
   xmlns="http://www.w3.org/2000/svg"
   xmlns:xlink="http://www.w3.org/1999/xlink"
   xmlns:sodipodi="http://sodipodi.sourceforge.net/DTD/sodipodi-0.dtd"
   xmlns:inkscape="http://www.inkscape.org/namespaces/inkscape"
   height="128"
   viewBox="0 0 128 128"
   width="128"
   version="1.1"
   id="svg31"
   sodipodi:docname="lc_symbolshapes.puzzle.svg"
   inkscape:version="0.92.3 (unknown)"
   inkscape:export-filename="/home/rizmut/Dokumen/Rizmut/Github/libreoffice-style-karasa-jaga/build/images_karasa_jaga/cmd/lc_symbolshapes.puzzle.png"
   inkscape:export-xdpi="16.5"
   inkscape:export-ydpi="16.5">
  <metadata
     id="metadata37">
    <rdf:RDF>
      <cc:Work
         rdf:about="">
        <dc:format>image/svg+xml</dc:format>
        <dc:type
           rdf:resource="http://purl.org/dc/dcmitype/StillImage" />
        <dc:title></dc:title>
      </cc:Work>
    </rdf:RDF>
  </metadata>
  <defs
     id="defs35">
    <linearGradient
       id="linearGradient3369">
      <stop
         id="stop3372"
         offset="0"
         style="stop-color:#ffffff;stop-opacity:1;" />
      <stop
         style="stop-color:#ffffff;stop-opacity:1;"
         offset="0.46428573"
         id="stop3374" />
      <stop
         style="stop-color:#f1f1f1;stop-opacity:1;"
         offset="0.78125"
         id="stop3376" />
      <stop
         id="stop3378"
         offset="0.90625"
         style="stop-color:#eaeaea;stop-opacity:1;" />
      <stop
         id="stop3384"
         offset="1"
         style="stop-color:#dfdfdf;stop-opacity:1;" />
    </linearGradient>
    <linearGradient
       id="linearGradient7422">
      <stop
         style="stop-color:#7c9fcf;stop-opacity:1"
         offset="0"
         id="stop7424" />
      <stop
         id="stop5348"
         offset="0.5"
         style="stop-color:#7c9ece;stop-opacity:1" />
      <stop
         id="stop7426"
         offset="1"
         style="stop-color:#7b9dcf;stop-opacity:1" />
    </linearGradient>
    <linearGradient
       inkscape:collect="always"
       xlink:href="#linearGradient3369"
       id="linearGradient1253"
       x1="63.9991"
       y1="128"
       x2="63.9991"
       y2="0.0018"
       gradientUnits="userSpaceOnUse" />
    <linearGradient
       inkscape:collect="always"
       xlink:href="#linearGradient7422"
       id="linearGradient1266"
       x1="0.029296881"
       y1="64.013008"
       x2="127.9707"
       y2="64.013008"
       gradientUnits="userSpaceOnUse" />
  </defs>
  <sodipodi:namedview
     pagecolor="#ffffff"
     bordercolor="#666666"
     borderopacity="1"
     objecttolerance="10"
     gridtolerance="10"
     guidetolerance="10"
     inkscape:pageopacity="0"
     inkscape:pageshadow="2"
     inkscape:window-width="1366"
     inkscape:window-height="706"
     id="namedview33"
     showgrid="true"
     inkscape:zoom="1.4142136"
     inkscape:cx="-69.258331"
     inkscape:cy="59.786527"
     inkscape:window-x="-1"
     inkscape:window-y="-1"
     inkscape:window-maximized="0"
     inkscape:current-layer="svg31"
     inkscape:snap-global="false">
    <inkscape:grid
       type="xygrid"
       id="grid844"
       spacingx="5.8181"
       spacingy="5.8181"
       empspacing="1" />
  </sodipodi:namedview>
  <linearGradient
     id="a">
    <stop
       offset="0"
       stop-color="#f9f9fa"
       id="stop2" />
    <stop
       offset="1"
       stop-color="#f9f9fa"
       stop-opacity="0"
       id="stop4" />
  </linearGradient>
  <linearGradient
     id="b"
     gradientUnits="userSpaceOnUse"
     x1="42.276669"
     x2="-13.469376"
     xlink:href="#a"
     y1="50.867565"
     y2="104.97279" />
  <linearGradient
     id="c"
     gradientUnits="userSpaceOnUse"
     x1="-1.817377"
     x2="2.172436"
     xlink:href="#a"
     y1="55.003803"
     y2="116.784" />
  <path
     style="opacity:1;fill:url(#linearGradient1266);fill-opacity:1.0;stroke:none;stroke-width:3.58398747;stroke-linecap:square;stroke-linejoin:bevel;stroke-miterlimit:4;stroke-dasharray:none;stroke-dashoffset:0;stroke-opacity:0.72941176"
     d="m 56.730469,6.2851562 c -0.09833,-0.0012 -0.196664,1.037e-4 -0.294922,0.00391 C 45.62301,6.6917442 34.926923,7.9208533 24.804688,9.9355469 L 21.127072,14.8643 c -2.568333,3.442088 3.069188,14.633417 3.610876,17.887706 l 2.247658,10.572592 C 22.977079,42.551144 18.944146,41.771076 14.859375,41.044922 7.0273497,39.652615 0.02929688,45.190296 0.02929688,52.75 v 21.005859 c 0,3.856016 1.79597212,6.897957 4.46875002,9.16211 2.6727779,2.264153 6.8945951,3.665237 11.0644531,2.371093 2.968081,-0.921164 5.970816,-1.768737 9.010984,-2.537875 2.697346,-0.682406 -6.243105,31.577393 -3.484887,31.021853 0.895565,3.10837 2.357579,3.38449 3.698512,4.26602 9.975937,2.00944 20.517305,3.25675 31.183594,3.69727 2.732077,0.11249 5.170736,-1.70083 5.849609,-4.34961 2.635121,-10.29043 -0.83664,-18.607131 -2.667968,-25.490236 0.491989,-0.211765 1.028432,-0.476562 1.671875,-0.476562 h 6.445312 c 0.444291,0 0.902154,0.247353 1.44336,0.43164 C 64.394825,103.18898 66.079643,111.52408 67.75,117.4668 c 0.72666,2.58633 3.136211,4.33366 5.820312,4.2207 11.597144,-0.48823 23.040455,-1.93035 33.771488,-4.26758 2.14939,-0.88186 3.62525,-2.43725 4.10937,-4.98437 l -2.65088,-15.763057 -3.00695,-13.215948 c -0.5077,-2.231403 4.45633,1.187495 6.72228,1.855955 4.1472,1.223432 8.31418,-0.15827 10.98438,-2.410156 2.6702,-2.251887 4.4707,-5.300997 4.4707,-9.146485 V 52.75 c 0,-3.887252 -1.78355,-6.905084 -4.46289,-9.201172 -2.67933,-2.296087 -7.05757,-3.752885 -11.28125,-2.261719 -2.36342,0.834402 -6.71604,4.514013 -6.34605,2.164573 l 3.31341,-21.040534 c 1.8218,-5.16245 4.04735,-10.790345 -1.82673,-11.784195 C 96.448854,8.2432674 84.788662,6.7860548 72.980469,6.3183594 70.2634,6.2111352 67.837475,8.0082372 67.148438,10.638672 c -1.484751,5.675689 -2.109671,13.425845 1.664062,23.375 -0.564039,0.20105 -1.068058,0.460937 -1.542969,0.460937 H 60.824219 C 60.183755,34.474609 59.652301,34.210882 59.160156,34 60.830499,27.733453 63.827011,20.372735 62.371094,11.171875 61.930472,8.3874308 59.549286,6.3245053 56.730469,6.2851562 Z"
     id="path1255"
     inkscape:connector-curvature="0"
     sodipodi:nodetypes="cccsccsssssscccccssccccccssssscsscccccssccc" />
  <path
     inkscape:connector-curvature="0"
     style="opacity:1;fill:url(#linearGradient1253);fill-opacity:1;stroke:none;stroke-width:3.58398747;stroke-linecap:square;stroke-linejoin:bevel;stroke-miterlimit:4;stroke-dasharray:none;stroke-dashoffset:0;stroke-opacity:0.72941176"
     d="m 56.649918,12.076028 a 104.06962,52.126258 0 0 0 -30.713722,3.541441 52.126258,104.06962 0 0 1 5.465289,34.450424 C 25.53986,48.959698 19.717732,47.792192 13.84638,46.748436 9.4693513,45.970325 5.822131,49.425358 5.822131,52.750179 v 21.006105 c 0,3.324823 3.7783801,7.319482 8.024249,6.001745 5.781637,-1.794372 11.696991,-3.320295 17.764754,-4.542416 a 52.126258,104.06962 0 0 1 -5.679047,37.145037 104.06962,52.126258 0 0 0 30.275923,3.58871 C 58.470788,107.11297 54.941766,99.562322 53.092036,91.640251 52.334364,88.395279 56.5401,85.626174 60.82442,85.626174 h 6.445708 c 4.284323,0 9.091153,2.971438 7.732385,6.014077 -5.147881,11.527439 -3.457017,17.927629 -1.6772,24.259779 a 104.06962,52.126258 0 0 0 32.783497,-4.13955 52.126258,104.06962 0 0 1 -5.39951,-35.480173 c 4.39051,0.976977 8.86716,2.127454 13.44431,3.477722 4.26399,1.257883 8.02426,-2.676922 8.02426,-6.001745 V 52.750179 c 0,-3.324821 -3.83219,-7.481751 -8.02426,-6.001743 -4.60374,1.625346 -9.05561,2.938085 -13.38676,4.003902 a 52.126258,104.06962 0 0 1 5.36458,-34.466867 104.06962,52.126258 0 0 0 -33.379571,-4.180668 c -1.491498,5.701484 -2.328542,11.894886 2.250654,22.148904 1.358768,3.042639 -3.448062,6.014078 -7.732385,6.014078 H 60.82442 c -4.28432,0 -8.490056,-2.769107 -7.732384,-6.014078 1.699327,-7.277926 4.813502,-14.242623 3.557882,-22.177679 z"
     id="path2943" />
</svg>
